packages/core/src/svgs/bft.svg

<svg width="24" height="24" viewBox="0 0 24 24" fill="none" xmlns="http://www.w3.org/2000/svg">
<g clip-path="url(#clip0_31_6989)">
<path d="M0 0H24V24H0V0Z" fill="#2E3488"/>
<path d="M12.0001 18.5388C15.6112 18.5388 18.5388 15.6117 18.5388 12.0001C18.5388 8.38851 15.6117 5.46094 12.0001 5.46094C8.38851 5.46094 5.46094 8.38851 5.46094 12.0001C5.46094 15.6112 8.38851 18.5388 12.0001 18.5388Z" fill="white"/>
<path d="M12 5.77949C8.56454 5.77949 5.77925 8.56478 5.77925 12.0002C5.77925 15.4356 8.56454 18.2209 12 18.2209C15.4354 18.2209 18.2207 15.4356 18.2207 12.0002C18.2207 8.56478 15.4354 5.77949 12 5.77949ZM5.14282 12.0002C5.14282 8.21292 8.21268 5.14307 12 5.14307C15.7873 5.14307 18.8571 8.21292 18.8571 12.0002C18.8571 15.7875 15.7873 18.8574 12 18.8574C8.21268 18.8574 5.14282 15.7875 5.14282 12.0002Z" fill="#6D2B7F"/>
<path fill-rule="evenodd" clip-rule="evenodd" d="M8.14448 9.20057V14.7994C8.14448 14.9057 8.23662 15 8.34119 15H9.61234C9.98948 15 10.2942 14.6889 10.2942 14.3044V12.2143C10.2942 11.9559 10.1369 11.7964 9.94919 11.6494C9.93764 11.64 9.92832 11.6282 9.92192 11.6147C9.91552 11.6013 9.91221 11.5865 9.91221 11.5716C9.91221 11.5567 9.91552 11.542 9.92192 11.5286C9.92832 11.5151 9.93764 11.5033 9.94919 11.4939C10.1326 11.3396 10.2942 11.1814 10.2942 10.9209V9.696C10.2942 9.315 9.98948 9 9.61234 9H8.34119C8.31508 9.00022 8.28926 9.00559 8.26522 9.01579C8.24118 9.02599 8.21939 9.04083 8.20108 9.05945C8.18277 9.07808 8.16831 9.10013 8.15853 9.12434C8.14874 9.14855 8.14425 9.17446 8.14448 9.20057ZM8.99991 9.72429C8.99911 9.70455 9.00423 9.68502 9.01462 9.66822C9.025 9.65142 9.04018 9.63811 9.05819 9.63C9.21119 9.56357 9.42848 9.70371 9.42848 9.87171V10.8986C9.42848 11.013 9.31405 11.1441 9.19662 11.1441H9.09634C9.08347 11.1442 9.07073 11.1417 9.05886 11.1367C9.04699 11.1318 9.03624 11.1245 9.02725 11.1153C9.01825 11.1061 9.0112 11.0952 9.0065 11.0832C9.00181 11.0712 8.99956 11.0584 8.99991 11.0456V9.72429ZM9.00162 14.202C9.00111 14.2151 9.0032 14.2281 9.00779 14.2404C9.01238 14.2527 9.01937 14.2639 9.02835 14.2734C9.03732 14.283 9.04811 14.2906 9.06008 14.296C9.07205 14.3013 9.08496 14.3042 9.09805 14.3044L9.19834 14.3001C9.33119 14.3001 9.42848 14.1861 9.42848 14.0546V12.2511C9.42848 12.1161 9.33034 12.0017 9.19834 12.0017H9.09805C9.04191 12.0017 9.00162 12.0467 9.00162 12.1037V14.202ZM11.1428 9.20057V14.7994H11.1471C11.1471 14.9044 11.2345 14.9979 11.3356 15H11.8135C11.9146 14.9979 11.9999 14.9044 11.9999 14.7994V12.1071C11.9978 12.0527 12.0432 12 12.0972 12H12.6663C12.7675 12 12.8549 11.913 12.8571 11.808V11.3469C12.8571 11.2363 12.7726 11.1429 12.6706 11.1429H12.1006C12.0458 11.1429 11.9999 11.1013 11.9999 11.0486V9.95871C11.9996 9.9456 12.0018 9.93255 12.0065 9.9203C12.0112 9.90805 12.0183 9.89685 12.0273 9.88734C12.0364 9.87783 12.0472 9.87019 12.0592 9.86486C12.0712 9.85953 12.0841 9.85662 12.0972 9.85629H12.6663C12.7675 9.85629 12.8549 9.765 12.8571 9.66V9.20057C12.8571 9.09 12.7726 9 12.6706 9H11.3395C11.2293 9 11.1428 9.09 11.1428 9.20057ZM13.2856 9.20057V9.66C13.2883 9.71091 13.3096 9.75906 13.3455 9.79527C13.3813 9.83147 13.4293 9.85319 13.4802 9.85629H14.0545C14.1089 9.85629 14.1509 9.90514 14.1488 9.95871V14.7994C14.1488 14.9057 14.2392 15 14.3416 15H14.81C14.9125 15 14.9999 14.9057 14.9999 14.7994V9.95871C14.9996 9.94556 15.0018 9.93248 15.0066 9.9202C15.0113 9.90793 15.0184 9.89671 15.0275 9.88719C15.0366 9.87768 15.0474 9.87005 15.0595 9.86474C15.0715 9.85944 15.0845 9.85656 15.0976 9.85629H15.665C15.7662 9.85629 15.8562 9.765 15.8579 9.66V9.20057C15.8588 9.14843 15.839 9.09805 15.8029 9.06046C15.7668 9.02286 15.7172 9.00113 15.665 9H13.4802C13.4279 9.00101 13.3781 9.02266 13.3416 9.06023C13.3052 9.09779 13.285 9.14824 13.2856 9.20057Z" fill="#2E3488"/>
</g>
<defs>
<clipPath id="clip0_31_6989">
<rect width="24" height="24" fill="white"/>
</clipPath>
</defs>
</svg>

<svg xmlns="http://www.w3.org/2000/svg" width="24" height="24" fill="none" viewBox="0 0 24 24"><g clip-path="url(#a)"><path fill="#2E3488" d="M0 0h24v24H0z"/><path fill="#fff" d="M12 18.539A6.539 6.539 0 1 0 12 5.46a6.539 6.539 0 1 0 0 13.078"/><path fill="#6D2B7F" d="M12 5.78a6.221 6.221 0 1 0 0 12.441A6.221 6.221 0 0 0 12 5.78M5.143 12a6.857 6.857 0 1 1 13.714 0 6.857 6.857 0 0 1-13.714 0"/><path fill="#2E3488" fill-rule="evenodd" d="M8.144 9.2v5.6c0 .106.093.2.197.2h1.271a.69.69 0 0 0 .682-.696v-2.09c0-.258-.157-.418-.345-.565a.1.1 0 0 1 0-.155c.184-.154.345-.313.345-.573V9.696A.69.69 0 0 0 9.612 9h-1.27a.2.2 0 0 0-.198.2M9 9.725a.1.1 0 0 1 .058-.094c.153-.066.37.074.37.242v1.027c0 .114-.114.245-.231.245h-.1a.1.1 0 0 1-.07-.029.1.1 0 0 1-.027-.07zm.002 4.478a.1.1 0 0 0 .096.102l.1-.004c.133 0 .23-.114.23-.245V12.25c0-.135-.098-.25-.23-.25h-.1c-.056 0-.096.046-.096.103zm2.14-5.001v5.598h.005c0 .105.088.199.189.201h.477c.102-.002.187-.096.187-.2v-2.693c-.002-.054.043-.107.097-.107h.57a.196.196 0 0 0 .19-.192v-.461c0-.11-.084-.204-.186-.204h-.57c-.055 0-.101-.042-.101-.094v-1.09a.1.1 0 0 1 .06-.094.1.1 0 0 1 .037-.009h.57c.1 0 .188-.091.19-.196V9.2c0-.11-.084-.2-.186-.2h-1.332c-.11 0-.196.09-.196.2m2.144 0v.459a.21.21 0 0 0 .194.196h.575c.054 0 .096.05.094.103v4.84c0 .107.09.201.193.201h.468c.102 0 .19-.094.19-.2V9.958a.1.1 0 0 1 .098-.103h.567a.2.2 0 0 0 .193-.196V9.2a.197.197 0 0 0-.193-.2H13.48a.2.2 0 0 0-.194.2" clip-rule="evenodd"/></g><defs><clipPath id="a"><path fill="#fff" d="M0 0h24v24H0z"/></clipPath></defs></svg>
